X:1
T:Title
%%score { ( 1 3 4 ) | ( 2 5 ) }
L:1/8
M:2/2
K:Eb
V:1 treble nm="Grand Piano"
V:3 treble 
V:4 treble 
V:2 treble 
V:5 treble 
V:1
 z4 z2[Q:1/4=100] G2 | G2 G2 G2 B2 | z4 A4 | G8 | [Ge]4 [Fe]2 [Fd]2 | [Ec]2 [Ee]2 [Fd]2 [Gc]2 | %6
 [Ff]6 [EF=A]2 | [DFB]4 z2 [B,DB]2 | [Ac]2 [Gc]2 [Fc]2 [Ef]2 | [Df]4 [FB]4 | [EB]4 [Ec]4 | %11
 [DB]2 [DB]2 [EB]2 [F_d]2 | [B,=E_d]3 [B,Ec] [B,Ec]2 [B,Ec]2 | [A,Fc]4 [Fcf]4 | [FBf]8 | %15
 [Be]4 [EB]2 [EB]2 | [Ed]4 [Ec]4 | [EB]2 [DB]2 [EB]2 [FA]2 | G2 G2 A2 B2 | c2 c2 [Af]2 [Ae]2 | %20
 d4- [Gd]2 [Fe]2 |[M:3/4] [Ee]6 |] %22
V:2
 z4 z2 E2 | [DE]2 [CE]2 [B,E]2 [G,E]2 | [A,E]2 [G,E]2 [F,E]2 B,2 | [E,E]8 | %4
 [C,G,]4 [=B,,G,]2 [B,,G,]2 | [C,G,]2 [C,G,]2 [D,=B,]2 [E,C]2 | [F,D]6 F,2 | B,,4 z2 B,,2 | %8
 [B,,F,]2 [B,,G,]2 [B,,A,]2 [B,,C]2 | [B,,B,]4 [D,A,]4 | [E,G,]4 [=A,,F,]4 | %11
 [B,,F,]2 [B,,F,]2 [B,,G,]2 [A,,A,]2 | G,,3 G,, G,,2 G,,2 | F,,4 [E,A,C]4 | [D,A,B,]8 | %15
 [E,G,E]4 [G,,G,]2 [G,,G,]2 | [A,,B,]4 [A,,A,]4 | [B,,G,]2 [B,,F,]2 [C,E,]2 [D,B,]2 | %18
 [E,B,E]2 [E,_DE]2 [F,CE]2 [G,B,E]2 | [A,E]2 [A,B,E]2 [F,C]2 [F,C]2 | z4 B,2 [B,,A,]2 | %21
[M:3/4] [E,G,]6 |] %22
V:3
 x8 | x8 | F2 G2 z2 z G | x8 | x8 | x8 | x8 | x8 | x8 | x8 | x8 | x8 | x8 | x8 | x8 | x8 | x8 | %17
 x8 | x8 | x8 | [CA]4 z4 |[M:3/4] x6 |] %22
V:4
 x8 | x8 | z4 z2 D2 | x8 | x8 | x8 | x8 | x8 | x8 | x8 | x8 | x8 | x8 | x8 | x8 | x8 | x8 | x8 | %18
 x8 | x8 | x8 |[M:3/4] x6 |] %22
V:5
 x8 | x8 | x8 | x8 | x8 | x8 | x8 | x8 | x8 | x8 | x8 | x8 | x8 | x8 | x8 | x8 | x8 | x8 | x8 | %19
 x8 | B,,8 |[M:3/4] x6 |] %22

